X:1
T:Title
%%score { ( 1 3 ) | 2 }
L:1/8
M:4/4
K:F
V:1 treble nm="Grand Piano"
V:3 treble 
V:2 bass 
V:1
 z4 z2[Q:1/4=100] FG | AAAA BAGF | [EG][EG][EG][GB] [CFA]2 [CFA][CFA] | [DFc][DFB][DFB][DFB] BAAA | %4
 [FA][EG][EG][FA] [EG]2 [EG][FA] | [GB][GB][Ac][GB] [GB]AAc | [Fd][Fd][Fe][Fd] [Fc]2 [FA][Ac] | %7
 [Ac][GB][Ac][GB] [GB][FA][GB][FA] |[M:3/4] [FA][EG] [FA]G F2 |[M:1/4] AB |[M:4/4] c6 z2 | c4 z4 | %12
 A6 z2 | F6 z2 | B-[DFB-][DFB-][DFB-] [DFB][Fd][DFc][DFB] | A4 z4 | G6 z2 |[M:3/4] F6 |] %18
V:2
 z4 z2 [F,A,C][F,B,C] | [F,CF][F,CF][F,CF][F,CF] [F,DF][F,CF][F,B,C][F,A,C] | %2
 [C,C][C,C][C,C][C,C] F,2 F,F, | B,,B,,B,,B,, [F,DF][F,CF][F,CF][F,CF] | %4
 [C,C][C,C][C,C][C,C] [C,C]2 [C,C][C,C] | [C,C][C,C][C,C][C,C] [F,C][F,CF][F,CF][F,A,F] | %6
 [B,,B,][B,,B,][B,,B,][B,,B,] [F,A,]2 [F,C][F,C] | [C,C][C,C][C,C][C,C] [F,C][F,C][F,C][F,C] | %8
[M:3/4] [C,C][C,C] [C,C][C,B,C] [F,A,C]2 |[M:1/4] [F,CF][F,CG] | %10
[M:4/4] [F,A,F][F,A,][F,A,][F,A,] [F,A,][F,A,F][F,B,D][F,B,F] | %11
 [F,A,F][F,A,][F,A,][F,A,] [F,CF]2 [F,A,C][F,DF] | %12
 [C,C][C,C][C,C][C,C] [C,B,][C,B,][C,G,C][C,B,C] | [F,A,C][F,A,][F,A,][F,A,] [F,A,]2 [F,CE][F,CF] | %14
 B,,B,,B,,B,, B,,[B,,B,]B,,B,, | [F,CF][F,C][F,C][F,C] [F,C]2 [F,A,][F,CF] | %16
 [C,C][C,C][C,C][C,C] [C,C][C,C][C,C][C,B,] |[M:3/4] [F,A,C][F,A,] [F,B,][F,B,] [F,A,]2 |] %18
V:3
 x8 | x8 | x8 | x8 | x8 | x8 | x8 | x8 |[M:3/4] x6 |[M:1/4] x2 |[M:4/4] z FFF Fced | z FFF A2 FB | %12
 EEEE E[EG]EG | z CCC C2 GA | .[DF]2 z2 z4 | z FFF [Ac]2 FA | EEEE E[GB][FA][EG] | %17
[M:3/4] z C DD C2 |] %18

